!!!COM: Bach, Johann Sebastian
!!!CDT: 1685/3//-1750/7/28/
!!!OTL@@DE: Jesu, meiner Seelen Wonne
!!!AGN: 4-Part Chorale
!!!SCT: BH 350
!!!SCT: BWV 360
**harm	**root	**kern	**kern	**kern	**kern
!	!	!bass	!tenor	!alto	!soprno
*	*Iorgan	*Iorgan	*Iorgan	*Iorgan	*Iorgan
*M4/4	*M4/4	*M4/4	*M4/4	*M4/4	*M4/4
*met(c)	*met(c)	*met(c)	*met(c)	*met(c)	*met(c)
*MM60	*MM60	*MM60	*MM60	*MM60	*MM60
*k[b-e-a-]	*k[b-e-a-]	*k[b-e-a-]	*k[b-e-a-]	*k[b-e-a-]	*k[b-e-a-]
*E-:	*E-:	*E-:	*E-:	*E-:	*E-:
*>[A,A,B]	*>[A,A,B]	*>[A,A,B]	*>[A,A,B]	*>[A,A,B]	*>[A,A,B]
*>A	*>A	*>A	*>A	*>A	*>A
=1-	=1-	=1-	=1-	=1-	=1-
I	4BB-	4e-	4b-	4ee-	4gg
IVb	4EE-	4c	8e-	4ee-	4aa-
.	.	.	8f	.	.
iii	4DD	4G	4g	4dd	4bb-
vi7	4GG	4c	4g	8ee-	4bb-
.	.	.	.	8dd	.
=2	=2	=2	=2	=2	=2
ii	4CC	4F	4a-	8cc	4aa-
.	.	.	.	8dd	.
I	4BB-	4E-	4b-	4ee-	4gg
V	4FF	4B-	4b-	4dd	4ff
V;	4FF;	4B-;	4b-;	4dd;	4ff;
=3	=3	=3	=3	=3	=3
I	4BB-	4E-	4b-	4ee-	4gg
ii	4CC	4F	4a-	8dd	4aa-
.	.	.	.	8cc	.
iii	4DD	4G	8g	4b-	4bb-
.	.	.	8f	.	.
vi	4GG	8c	4e-	4cc	4gg
.	.	8B-	.	.	.
=4	=4	=4	=4	=4	=4
ii7b	4CC	4A-	4e-	4cc	4.ff
V	4FF	4B-	4d	4b-	.
.	.	.	.	.	8ff
I;	2BB-;	2E-;	2g;	2b-;	2ee-;
=:|!	=:|!	=:|!	=:|!	=:|!	=:|!
*>B	*>B	*>B	*>B	*>B	*>B
=5	=5	=5	=5	=5	=5
V	4FF	4B-	4b-	4dd	4ff
viiob/ii	4BB	4G	4B-	4ee	4gg
ii	4CC	8F	4c	4ff	4aa-
.	.	8G	.	.	.
iib	4CC	8A-	4f	4cc	4aa-
.	.	8B-	.	.	.
=6	=6	=6	=6	=6	=6
V/ii	4GG	4c	8f	4cc	4.gg
.	.	.	8d	.	.
V7/ii	4GG	4C	4e	8b-	.
.	.	.	.	8a-	8ff
ii;	2CC;	2F;	2c;	2a-;	2ff;
!!linebreak: 2
=7	=7	=7	=7	=7	=7
ii	4CC	4f	4f	4cc	4aa-
V7/IV	4BB-	8e-	4g	4ee-	4bb-
.	.	8d-	.	.	.
IVb	4EE-	8c	4a-	4ee-	4ccc
.	.	8B-	.	.	.
IV	4EE-	4A-	4a-	4ee-	4ccc
=8	=8	=8	=8	=8	=8
V/IV	4BB-	4e-	8a-	4ee-	4bb-
.	.	.	8f	.	.
V7/IV	4BB-	4E-	4g	8ee-	8.bb-
.	.	.	.	8dd-	.
.	.	.	.	.	16aa-
IV;	2EE-;	2A-;	2e-;	2cc;	2aa-;
=9	=9	=9	=9	=9	=9
vi	4GG	4c	4e-	4cc	4gg
IV	4EE-	8B-	4e-	4cc	4aa-
.	.	8A-	.	.	.
Vb/IV	4BB-	4G	8e-	4b-	4bb-
.	.	.	8d-	.	.
IV	4EE-	4A-	4c	4a-	4ee-
=10	=10	=10	=10	=10	=10
V7b	4FF	4D	4f	4b-	4aa-
I	4BB-	4E-	4e-	4b-	4gg
V	4FF	4B-	4d	4b-	4ff
V;	4FF;	4B-;	4d;	4b-;	4ff;
=11	=11	=11	=11	=11	=11
I	4BB-	4e-	4e-	4b-	4gg
IVb	4EE-	8d	4e-	4cc	4aa-
.	.	8c	.	.	.
V	4FF	8d	4f	4b-	4bb-
.	.	8B-	.	.	.
I	4BB-	4e-	4e-	4b-	4gg
=12	=12	=12	=12	=12	=12
ii7b	4CC	4A-	4e-	4cc	4ff
V	4FF	4B-	4d	4b-	4ff
I	4BB-	4E-	4g	4b-	4ee-
I;	4BB-;	4E-;	4g;	4b-;	4ee-;
==	==	==	==	==	==
*-	*-	*-	*-	*-	*-
!!chor2scor: -l 2 -s 0.6 -o %b.pmx
!!!YEC: Copyright 1994, David Huron
!!!YEC: Changes/Additions 2001 by Craig Stuart Sapp
!!!YEN: United States of America
!!!SMA: 371 Bach Chorales, edited by Ludwig Erk, C.F. Peters
!!!PDT: 1850, 1865
!!!ONB: Harmony and Root analysis done manually
